X: 4506
T: Bonny Wee Thing
R: jig
M: 6/8
K: Dmajor
DFA AFA|BGBd2e|f2dg2f|e2E E3|
DFA AFA|BGBd2e|f2dg2e|1 fdd d3:|2 fdd dFG||
|:ABA AFA|dcB AGF|GBG AFD|EFE EFG|
[1 ABA AFA|dcB AGF|GFG EAG|FDD DFG:|
[2 DFA AFA|BGB d2e|f2d g2e|fdd d3||

